ui/public/images/landing-cards/timer-flash.svg

<svg width="17" height="16" viewBox="0 0 17 16" fill="none" xmlns="http://www.w3.org/2000/svg">
<g clip-path="url(#clip0_11778_289419)">
<path d="M4.42117 3.9785C5.48367 3.12721 6.80504 2.66433 8.16651 2.6665C9.58317 2.6665 10.8852 3.15717 11.9118 3.9785L12.8805 3.00984L13.8232 3.9525L12.8545 4.92117C13.5596 5.80394 14.0012 6.86786 14.1284 7.9905C14.2555 9.11314 14.0632 10.2489 13.5734 11.267C13.0836 12.2851 12.3162 13.1443 11.3597 13.7456C10.4032 14.3469 9.29633 14.6659 8.16651 14.6659C7.03669 14.6659 5.92983 14.3469 4.9733 13.7456C4.01678 13.1443 3.24946 12.2851 2.75966 11.267C2.26985 10.2489 2.07747 9.11314 2.20464 7.9905C2.33181 6.86786 2.77337 5.80394 3.47851 4.92117L2.50984 3.95317L3.45251 3.0105L4.42117 3.97917V3.9785ZM8.83317 7.99984V4.9965L5.49984 9.33317H7.49984V12.3332L10.8332 7.99984H8.83317ZM5.49984 0.666504H10.8332V1.99984H5.49984V0.666504Z" fill="#161616"/>
</g>
<defs>
<clipPath id="clip0_11778_289419">
<rect width="16" height="16" fill="white" transform="translate(0.166504)"/>
</clipPath>
</defs>
</svg>

<svg width="17" height="16" fill="none" xmlns="http://www.w3.org/2000/svg"><g clip-path="url(#a)"><path d="M4.421 3.978a5.975 5.975 0 0 1 3.746-1.312c1.416 0 2.718.491 3.745 1.313l.968-.97.943.944-.969.968a6 6 0 1 1-9.375 0l-.97-.968.944-.942.968.968zM8.833 8V4.997L5.5 9.332h2v3L10.833 8h-2zM5.5.667h5.333V2H5.5V.667z" fill="#161616"/></g><defs><clipPath id="a"><path fill="#fff" transform="translate(.167)" d="M0 0h16v16H0z"/></clipPath></defs></svg>
